**kern	**kern	**dynam
*part1	*part1	*part1
*staff2	*staff1	*
*I"Piano	*	*
*clefF4	*clefG2	*
*k[]	*k[]	*
=1	=1	=1
*	*^	*
4DD 4D	8ffL	16ffLL	>
.	.	16f 16a	.
.	8ee	16ee	.
.	.	16f 16a	.
8AA-X) 8A-X	8ddJ)	16dd	.
.	.	16cnJJ 16f	.
=	=	=	=
*^	*	*	*
(4E	(4.GG	(4cc	16ccLL	] <
.	.	.	16c 16e	.
.	.	.	16g	.
.	.	.	[16cc	.
8F	.	8dd	16cc]	[ >
.	.	.	[16bJJ	.
=	=	=	=	=
4G:)	4CC)	4ee)	16bLL]	.
!	!	!LO:TX:b:i:t=cresc.	!	!
.	.	.	(16cc	]
.	.	.	16g	.
.	.	.	16e	.
8r	8ryy	8r	16g	.
.	.	.	16ccJJ)	.
*v	*v	*	*	*
=	=	=	=
(4.GGG 4.GG	8bL	16bLL	mf
.	.	16B 16e	<
.	8ee	16ee	.
.	.	16e 16b	.
.	8ggJ	16gg	.
.	.	16bJJ 16ee	.
*	*v	*v	*
=	=	=
4AAA 4AA	16ff#XLL	[ >
.	16f#X	.
.	16a	.
.	16cc#X	.
8BBB 8BB	16b	.
.	16aJJ	.
=	=	=
*	*^	*
4EEE) 4EE	16gLL	4g	] >
.	16b	.	.
.	16ee	.	.
.	16ddn	.	.
8r	16ccn	8r	.
.	16bJJ	.	.
*	*v	*v	*
=	=	=
(4.FF 4.F	(16eLL 16a	] p
.	16g	.
.	16f	.
.	16e	.
.	16d	.
.	16cJJ)	.
=	=	=
*-	*-	*-
!!!system-decoration: {(s1,s2)}
